X:135
T:Seanahmac Tube Station
R:jig
C:John Carty
S:Rory, Ben Nevis Bar, Glasgow
Z:robin.beech@mcgill.ca
M:6/8
K:Gdor
G2D DCD | GAc d3 | dcA cAF | GFD CDF |
GFD DCD | GAc dce | dcA c2A |1 G2 A BdA :|2 GAG GAc |
d3 dcA | cdc cAc | dcA cAF | GFD Cfe |
dfd dcA | cdc A2c | d2A c2A | GAG GAc |
d3 dcA | cdc cAc | dcA cAF | GFD CDF |
GFD GFD | GFD GFD | dcA dcA | GAG  GAc ||
dgg gag | f2g a2g | gfd c2d | cAF G2c |
dgg gag | f2g a2g | gfd cAF | G3 G2c |
dgg gag | f2g a2g | gfd c2d | cAF G2A |
GFD GFD | GFD GFD | dcA dcA | G2A BdA |]
